X: 2253
T: Babes In The Wood
R: polka
M: 2/4
K: Dmajor
|:AB/A/ FA|de f2|g2 fe|df A2|
AB/A/ FA|de f2|g2 fe|d2 d2:|
|:e2 ed|ce a2|e2 ef|ge cA|
e2 ed|ce a2|g2 fe|d2 d2:|

